misc/icons/Mountain/22x22/apps/com.github.gi_lom.dialect.svg

<svg xmlns="http://www.w3.org/2000/svg" width="22" height="22" version="1.1">
 <path style="opacity:0.2" d="m 14.999974,16.215873 c 0.135961,0.33731 0.102656,0.698691 -0.388893,0.965897 l -1.750021,1.159077 c -0.287879,0.141111 -0.777787,0.772717 0,1.149263 -0.661567,-0.08603 -0.802093,-0.554638 -0.972235,-0.956084 l -3.111148,-8.306714 5.055617,3.09087 z"/>
 <path style="opacity:0.2" d="m 11.111038,6.5 h 9.517198 C 21.388562,6.5 22,7.101151 22,7.848685 v 10.30263 C 22,18.898849 21.388562,19.5 20.628236,19.5 h -7.57273 c -0.388894,0 -0.643346,-0.114258 -0.875011,-0.382351 z"/>
 <path style="fill:#e4e4e4" d="m 11.111038,6 h 9.517198 C 21.388562,6 22,6.601151 22,7.348685 v 10.30263 C 22,18.398849 21.388562,19 20.628236,19 h -7.57273 c -0.388894,0 -0.643346,-0.114258 -0.875011,-0.382351 z"/>
 <path style="opacity:0.1" d="m 14.988072,10.045218 -0.632711,-0.03547 c 0.0068,0.190916 -0.0068,0.359952 -0.0357,0.586338 -0.01443,0.119982 -0.04253,0.275436 -0.07064,0.458801 h -0.121529 c -0.432956,0 -0.973751,-0.0498 -1.350492,-0.113191 l 0.0076,0.55087 c 0.412441,0.03547 0.859825,0.07093 1.350492,0.07093 h 0.0068 c -0.177736,0.797619 -0.461811,1.958215 -0.824124,2.663822 l 0.525609,0.190915 c 0.0714,-0.126773 0.135201,-0.225633 0.22027,-0.332037 0.476238,-0.557651 1.258595,-1.097237 2.103913,-1.097237 0.831708,0 1.265421,0.659571 1.265421,1.181754 0,1.165876 -1.592033,1.441292 -3.241039,1.214924 l 0.148872,0.565204 c 2.160888,0.225634 3.675434,-0.317683 3.675434,-1.793709 0,-0.819505 -0.661567,-1.648107 -1.791789,-1.648107 -0.739053,0 -1.378588,0.426394 -1.996968,0.85727 0.148873,-0.402953 0.312185,-1.223979 0.440539,-1.817098 0.902349,-0.03547 1.989968,-0.148657 2.821812,-0.296569 l -0.0068,-0.536518 c -0.874252,0.19016 -1.876859,0.289016 -2.708644,0.324484 0.0357,-0.15545 0.05697,-0.29657 0.07823,-0.4022 0.04254,-0.190915 0.07823,-0.409753 0.135201,-0.593119 z m 2.665281,-0.247502 -0.37674,0.16224 c 0.192168,0.261855 0.433713,0.691969 0.575737,0.981738 l 0.384344,-0.169032 C 18.094656,10.482893 17.831097,10.052006 17.653353,9.797705 Z M 18.442535,9.5155 18.065795,9.67774 c 0.198996,0.261101 0.433713,0.664054 0.590184,0.974204 l 0.383586,-0.175825 C 18.904364,10.214265 18.627124,9.776597 18.442555,9.515496 Z"/>
 <path style="opacity:0.2;fill:#ffffff" d="m 11.111328,6 0.04199,0.5 h 9.474611 C 21.388255,6.5 22,7.101099 22,7.848633 v -0.5 C 22,6.601099 21.388255,6 20.627929,6 Z"/>
 <path style="fill:#6b6a6e" d="m 14.988072,9.545218 -0.632711,-0.03547 c 0.0068,0.190916 -0.0068,0.359952 -0.0357,0.586338 -0.01443,0.119982 -0.04253,0.275436 -0.07064,0.458801 h -0.121529 c -0.432956,0 -0.973751,-0.0498 -1.350492,-0.113191 l 0.0076,0.55087 c 0.412441,0.03547 0.859825,0.07093 1.350492,0.07093 h 0.0068 c -0.177736,0.797619 -0.461811,1.958215 -0.824124,2.663822 l 0.525609,0.190915 c 0.0714,-0.126773 0.135201,-0.225633 0.22027,-0.332037 0.476238,-0.557651 1.258595,-1.097237 2.103913,-1.097237 0.831708,0 1.265421,0.659571 1.265421,1.181754 0,1.165876 -1.592033,1.441292 -3.241039,1.214924 l 0.148872,0.565204 c 2.160888,0.225634 3.675434,-0.317683 3.675434,-1.793709 0,-0.819505 -0.661567,-1.648107 -1.791789,-1.648107 -0.739053,0 -1.378588,0.426394 -1.996968,0.85727 0.148873,-0.402953 0.312185,-1.223979 0.440539,-1.817098 0.902349,-0.03547 1.989968,-0.148657 2.821812,-0.296569 l -0.0068,-0.536518 c -0.874252,0.19016 -1.876859,0.289016 -2.708644,0.324484 0.0357,-0.15545 0.05697,-0.29657 0.07823,-0.4022 0.04254,-0.190915 0.07823,-0.409753 0.135201,-0.593119 z m 2.665281,-0.247502 -0.37674,0.16224 c 0.192168,0.261855 0.433713,0.691969 0.575737,0.981738 l 0.384344,-0.169032 C 18.094656,9.982893 17.831097,9.552006 17.653353,9.297705 Z M 18.442535,9.0155 18.065795,9.17774 c 0.198996,0.261101 0.433713,0.664054 0.590184,0.974204 L 19.039565,9.976119 C 18.904364,9.714265 18.627124,9.276597 18.442555,9.015496 Z"/>
 <path style="fill:#7d45a8" d="m 14.999974,15.715873 c 0.135961,0.33731 0.102656,0.698691 -0.388893,0.965897 l -1.750021,1.159077 c -0.287879,0.141111 -0.777787,0.772717 0,1.149263 -0.661567,-0.08603 -0.802093,-0.554638 -0.972235,-0.956084 l -3.111148,-8.306714 5.055617,3.09087 z"/>
 <path style="opacity:0.2" d="M 2.3716276,2.5001343 H 9.739411 c 0.760326,0 1.097555,0.6539608 1.371764,1.3528522 C 11.564625,5.1511475 14.95,16.0915 14.95,16.0915 14.793531,15.761892 14.41677,15.5 14.027877,15.5 H 2.3717638 C 1.6114379,15.5 1,14.913193 1,14.163349 V 3.8528525 C 1,3.1030085 1.6114379,2.5 2.3717638,2.5 Z"/>
 <path style="fill:#cd50dc" d="M 2.3716276,2.0001343 H 9.739411 c 0.760326,0 1.097555,0.6539608 1.371764,1.3528523 C 11.564625,4.6511475 14.95,15.5915 14.95,15.5915 14.793531,15.261892 14.41677,15 14.027877,15 H 2.3717638 C 1.6114379,15 1,14.413192 1,13.663349 V 3.3528523 C 1,2.6030085 1.6114379,2 2.3717638,2 Z"/>
 <g style="opacity:0.2" transform="matrix(0.19161493,0,0,0.17907026,3.5568905,11.5)">
  <path d="m 2.3125,0 h 11.328 c 8.2656,0 14.766,-6.1406 14.766,-13.875 0,-7.8594 -6.5,-14.047 -14.766,-14.047 H 2.3125 Z m 11.172,-22.33755 c 4.3906,0 7.8125,3.99415 7.8125,8.46295 0,4.375 -3.460515,8.9119306 -7.8125,8.2901999 H 10.1407 V -22.33765 Z"/>
 </g>
 <g style="fill:#e8b3e9" transform="matrix(0.19161493,0,0,0.17907026,3.5568905,11)">
  <path d="m 2.3125,0 h 11.328 c 8.2656,0 14.766,-6.1406 14.766,-13.875 0,-7.8594 -6.5,-14.047 -14.766,-14.047 H 2.3125 Z m 11.172,-22.33755 c 4.3906,0 7.8125,3.99415 7.8125,8.46295 0,4.375 -3.460515,8.9119306 -7.8125,8.2901999 H 10.1407 V -22.33765 Z"/>
 </g>
 <path style="opacity:0.2;fill:#ffffff" d="M 2.3720703,2 C 1.6117445,2 1,2.6026952 1,3.352539 v 0.5 C 1,3.1026951 1.6117445,2.5 2.3720703,2.5 H 9.739258 c 0.760326,0 1.097861,0.6536476 1.37207,1.352539 0.420586,1.204076 3.160591,10.052248 3.584961,11.422851 0.104783,0.09247 0.197154,0.196854 0.253907,0.316407 0,0 -3.385418,-10.941097 -3.838868,-12.239258 C 10.837119,2.6536475 10.499584,2 9.739258,2 Z"/>
</svg>

<svg xmlns="http://www.w3.org/2000/svg" width="22" height="22" version="1.1">
 <path style="opacity:0.2" d="M 15,16.216 C 15.136,16.553 15.103,16.915 14.611,17.182 L 12.861,18.341 C 12.573,18.482 12.083,19.114 12.861,19.49 12.199,19.404 12.059,18.935 11.889,18.534 L 8.7777,10.227 13.833,13.318 Z"/>
 <path style="opacity:0.2" d="M 11.111,6.5 H 20.628 C 21.389,6.5 22,7.1012 22,7.8487 V 18.151 C 22,18.899 21.389,19.5 20.628,19.5 H 13.056 C 12.667,19.5 12.412,19.386 12.18,19.118 Z"/>
 <path style="fill:#e4e4e4" d="M 11.111,6 H 20.628 C 21.389,6 22,6.6012 22,7.3487 V 17.651 C 22,18.399 21.389,19 20.628,19 H 13.056 C 12.667,19 12.412,18.886 12.18,18.618 Z"/>
 <path style="opacity:0.1" d="M 14.988,10.045 14.355,10.01 C 14.362,10.201 14.349,10.37 14.32,10.596 14.305,10.716 14.277,10.872 14.249,11.055 H 14.127 C 13.695,11.055 13.154,11.005 12.777,10.942 L 12.785,11.493 C 13.197,11.528 13.644,11.563 14.135,11.563 H 14.142 C 13.964,12.361 13.68,13.522 13.318,14.227 L 13.843,14.418 C 13.915,14.291 13.979,14.193 14.064,14.086 14.54,13.529 15.322,12.989 16.168,12.989 16.999,12.989 17.433,13.649 17.433,14.171 17.433,15.337 15.841,15.612 14.192,15.386 L 14.341,15.951 C 16.502,16.176 18.016,15.633 18.016,14.157 18.016,13.338 17.355,12.509 16.224,12.509 15.485,12.509 14.846,12.935 14.227,13.366 14.376,12.963 14.54,12.142 14.668,11.549 15.57,11.514 16.658,11.401 17.49,11.253 L 17.483,10.716 C 16.609,10.906 15.606,11.005 14.774,11.041 14.81,10.885 14.831,10.744 14.853,10.638 14.895,10.447 14.931,10.229 14.988,10.045 Z M 17.653,9.7977 17.277,9.96 C 17.469,10.222 17.71,10.652 17.852,10.942 L 18.237,10.773 C 18.095,10.483 17.831,10.052 17.653,9.7977 Z M 18.443,9.5155 18.066,9.6777 C 18.265,9.9388 18.5,10.342 18.656,10.652 L 19.04,10.476 C 18.904,10.214 18.627,9.7766 18.443,9.5155 Z"/>
 <path style="opacity:0.2;fill:#ffffff" d="M 11.111,6 11.153,6.5 H 20.628 C 21.388,6.5 22,7.1011 22,7.8486 V 7.3486 C 22,6.6011 21.388,6 20.628,6 Z"/>
 <path style="fill:#6b6a6e" d="M 14.988,9.5452 14.355,9.5097 C 14.362,9.7007 14.349,9.8697 14.32,10.096 14.305,10.216 14.277,10.372 14.249,10.555 H 14.127 C 13.695,10.555 13.154,10.505 12.777,10.442 L 12.785,10.993 C 13.197,11.028 13.644,11.063 14.135,11.063 H 14.142 C 13.964,11.861 13.68,13.022 13.318,13.727 L 13.843,13.918 C 13.915,13.791 13.979,13.693 14.064,13.586 14.54,13.029 15.322,12.489 16.168,12.489 16.999,12.489 17.433,13.149 17.433,13.671 17.433,14.837 15.841,15.112 14.192,14.886 L 14.341,15.451 C 16.502,15.676 18.016,15.133 18.016,13.657 18.016,12.838 17.355,12.009 16.224,12.009 15.485,12.009 14.846,12.435 14.227,12.866 14.376,12.463 14.54,11.642 14.668,11.049 15.57,11.014 16.658,10.901 17.49,10.753 L 17.483,10.216 C 16.609,10.406 15.606,10.505 14.774,10.541 14.81,10.385 14.831,10.244 14.853,10.138 14.895,9.9475 14.931,9.7286 14.988,9.5453 Z M 17.653,9.2977 17.277,9.46 C 17.469,9.7218 17.71,10.152 17.852,10.442 L 18.237,10.273 C 18.095,9.9829 17.831,9.552 17.653,9.2977 Z M 18.443,9.0155 18.066,9.1777 C 18.265,9.4388 18.5,9.8418 18.656,10.152 L 19.04,9.9761 C 18.904,9.7143 18.627,9.2766 18.443,9.0155 Z"/>
 <path style="fill:#1d7a4f" d="M 15,15.716 C 15.136,16.053 15.103,16.415 14.611,16.682 L 12.861,17.841 C 12.573,17.982 12.083,18.614 12.861,18.99 12.199,18.904 12.059,18.435 11.889,18.034 L 8.7777,9.7273 13.833,12.818 Z"/>
 <path style="opacity:0.2" d="M 2.3716,2.5001 H 9.7394 C 10.5,2.5001 10.837,3.1541 11.111,3.853 11.565,5.1511 14.95,16.091 14.95,16.091 14.794,15.762 14.417,15.5 14.028,15.5 H 2.3718 C 1.6114,15.5 1,14.913 1,14.163 V 3.8529 C 1,3.103 1.6114,2.5 2.3718,2.5 Z"/>
 <path style="fill:#33d17a" d="M 2.3716,2.0001 H 9.7394 C 10.5,2.0001 10.837,2.6541 11.111,3.353 11.565,4.6511 14.95,15.592 14.95,15.592 14.794,15.262 14.417,15 14.028,15 H 2.3718 C 1.6114,15 1,14.413 1,13.663 V 3.3529 C 1,2.603 1.6114,2 2.3718,2 Z"/>
 <path style="opacity:0.2" d="M 4,11.5 H 6.1707 C 7.7543,11.5 9,10.4 9,9.0154 9,7.6081 7.7545,6.5 6.1707,6.5 H 4 Z M 6.1408,7.4999 C 6.9819,7.4999 7.6376,8.2153 7.6376,9.0154 7.6376,9.7989 6.9745,10.611 6.1408,10.5 H 5.5 V 7.4999 Z"/>
 <path style="fill:#ffffff" d="M 4,11 H 6.1707 C 7.7543,11 9,9.9004 9,8.5154 9,7.1081 7.7545,6 6.1707,6 H 4 Z M 6.1408,6.9999 C 6.9819,6.9999 7.6376,7.7153 7.6376,8.5154 7.6376,9.2989 6.9745,10.111 6.1408,10 H 5.5 V 6.9999 Z"/>
 <path style="opacity:0.2;fill:#ffffff" d="M 2.3721,2 C 1.6117,2 1,2.6027 1,3.3525 V 3.8525 C 1,3.1027 1.6117,2.5 2.3721,2.5 H 9.7393 C 10.5,2.5 10.837,3.1536 11.111,3.8525 11.532,5.0566 14.272,13.905 14.696,15.275 14.801,15.368 14.893,15.472 14.95,15.592 14.95,15.592 11.565,4.6507 11.111,3.3525 10.837,2.6536 10.5,2 9.7393,2 Z"/>
</svg>
